svg/24/panel-left.svg

<svg width="24" height="24" viewBox="0 0 24 24" fill="currentColor" xmlns="http://www.w3.org/2000/svg"><path fill-rule="evenodd" clip-rule="evenodd" d="M2 6C2 4.89543 2.89543 4 4 4H20C21.1046 4 22 4.89543 22 6V18C22 19.1046 21.1046 20 20 20H4C2.89543 20 2 19.1046 2 18V6ZM10 5.5H20C20.2761 5.5 20.5 5.72386 20.5 6V18C20.5 18.2761 20.2761 18.5 20 18.5H10V5.5ZM8.5 5.5H4C3.72386 5.5 3.5 5.72386 3.5 6V18C3.5 18.2761 3.72386 18.5 4 18.5H8.5V5.5Z"/></svg>

<svg xmlns="http://www.w3.org/2000/svg" width="24" height="24" fill="currentColor" viewBox="0 0 24 24">
  <path fill-rule="evenodd" d="M2 6a2 2 0 0 1 2-2h16a2 2 0 0 1 2 2v12a2 2 0 0 1-2 2H4a2 2 0 0 1-2-2V6Zm8-.5h10a.5.5 0 0 1 .5.5v12a.5.5 0 0 1-.5.5H10v-13Zm-1.5 0H4a.5.5 0 0 0-.5.5v12a.5.5 0 0 0 .5.5h4.5v-13Z" clip-rule="evenodd"/>
</svg>
